humanity-icon-theme/Humanity/mimes/22/application-vnd.ms-excel.svg

<?xml version="1.0" encoding="UTF-8" standalone="no"?>
<!-- Created with Inkscape (http://www.inkscape.org/) -->
<svg
   xmlns:svg="http://www.w3.org/2000/svg"
   xmlns="http://www.w3.org/2000/svg"
   xmlns:xlink="http://www.w3.org/1999/xlink"
   version="1.0"
   width="22"
   height="22"
   id="svg3422">
  <defs
     id="defs3424">
    <linearGradient
       id="linearGradient4711-257-850-696-320-311-361-101-393">
      <stop
         id="stop5651"
         style="stop-color:#425a2d;stop-opacity:1"
         offset="0" />
      <stop
         id="stop5653"
         style="stop-color:#7f956d;stop-opacity:1"
         offset="1" />
    </linearGradient>
    <linearGradient
       x1="-51.786404"
       y1="53.623615"
       x2="-51.786404"
       y2="2.9062471"
       id="linearGradient2634"
       xlink:href="#linearGradient4711-257-850-696-320-311-361-101-393"
       gradientUnits="userSpaceOnUse"
       gradientTransform="matrix(0.3922137,0,0,0.4473607,28.199292,-1.7387182)" />
    <linearGradient
       id="linearGradient4145-42-322-778-541-32-432-871-622">
      <stop
         id="stop5641"
         style="stop-color:#b5cc85;stop-opacity:1"
         offset="0" />
      <stop
         id="stop5643"
         style="stop-color:#9abe74;stop-opacity:1"
         offset="0.26238" />
      <stop
         id="stop5645"
         style="stop-color:#669f4d;stop-opacity:1"
         offset="0.704952" />
      <stop
         id="stop5647"
         style="stop-color:#47892b;stop-opacity:1"
         offset="1" />
    </linearGradient>
    <radialGradient
       cx="14.239056"
       cy="11.49049"
       r="18.000002"
       fx="14.239056"
       fy="11.49049"
       id="radialGradient2632"
       xlink:href="#linearGradient4145-42-322-778-541-32-432-871-622"
       gradientUnits="userSpaceOnUse"
       gradientTransform="matrix(0,1.5890979,-2.5735756,0,35.378535,-19.997893)" />
    <linearGradient
       id="linearGradient3211">
      <stop
         id="stop3213"
         style="stop-color:#ffffff;stop-opacity:1"
         offset="0" />
      <stop
         id="stop3215"
         style="stop-color:#ffffff;stop-opacity:0"
         offset="1" />
    </linearGradient>
    <linearGradient
       x1="24"
       y1="1.9999999"
       x2="24"
       y2="46.01725"
       id="linearGradient2629"
       xlink:href="#linearGradient3211"
       gradientUnits="userSpaceOnUse"
       gradientTransform="matrix(0.4545444,0,0,0.4418595,9.093361e-2,0.3953678)" />
    <linearGradient
       id="linearGradient4000">
      <stop
         id="stop4002"
         style="stop-color:#000000;stop-opacity:1"
         offset="0" />
      <stop
         id="stop4004"
         style="stop-color:#000000;stop-opacity:0"
         offset="1" />
    </linearGradient>
    <linearGradient
       x1="75.854454"
       y1="28"
       x2="91"
       y2="12"
       id="linearGradient2589"
       xlink:href="#linearGradient4000"
       gradientUnits="userSpaceOnUse"
       gradientTransform="matrix(0.5586663,0,0,0.474402,-30.222092,1.369623)"
       spreadMethod="reflect" />
    <linearGradient
       id="linearGradient5293">
      <stop
         id="stop5295"
         style="stop-color:#ffffff;stop-opacity:1"
         offset="0" />
      <stop
         id="stop5297"
         style="stop-color:#ffffff;stop-opacity:0"
         offset="1" />
    </linearGradient>
    <linearGradient
       x1="75.854454"
       y1="28"
       x2="91"
       y2="12"
       id="linearGradient2586"
       xlink:href="#linearGradient5293"
       gradientUnits="userSpaceOnUse"
       gradientTransform="matrix(0.5586663,0,0,0.474402,-30.161382,0.3122754)"
       spreadMethod="reflect" />
    <linearGradient
       id="linearGradient3759">
      <stop
         id="stop3761"
         style="stop-color:#000000;stop-opacity:1"
         offset="0" />
      <stop
         id="stop3763"
         style="stop-color:#000000;stop-opacity:0"
         offset="1" />
    </linearGradient>
    <linearGradient
       x1="-43.304745"
       y1="34.497406"
       x2="-25.365585"
       y2="20.126789"
       id="linearGradient2583"
       xlink:href="#linearGradient3759"
       gradientUnits="userSpaceOnUse"
       gradientTransform="matrix(0.4705882,0,0,0.5,32.437263,-2.5060303)"
       spreadMethod="reflect" />
    <linearGradient
       id="linearGradient8265-821-176-38-919-66-249">
      <stop
         id="stop2687"
         style="stop-color:#ffffff;stop-opacity:1"
         offset="0" />
      <stop
         id="stop2689"
         style="stop-color:#ffffff;stop-opacity:0"
         offset="1" />
    </linearGradient>
    <linearGradient
       x1="16.626165"
       y1="15.298182"
       x2="20.054544"
       y2="24.627615"
       id="linearGradient2625"
       xlink:href="#linearGradient8265-821-176-38-919-66-249"
       gradientUnits="userSpaceOnUse"
       gradientTransform="matrix(0.3482993,0,0,0.6967199,2.640816,-3.1585471)" />
    <linearGradient
       id="linearGradient2599">
      <stop
         id="stop2601"
         style="stop-color:#355129;stop-opacity:1"
         offset="0" />
      <stop
         id="stop2603"
         style="stop-color:#7c8763;stop-opacity:1"
         offset="1" />
    </linearGradient>
    <linearGradient
       x1="24.239185"
       y1="44.110138"
       x2="24.239185"
       y2="0.19081046"
       id="linearGradient2579"
       xlink:href="#linearGradient2599"
       gradientUnits="userSpaceOnUse"
       gradientTransform="matrix(0.5227167,0,0,0.504983,0.7207384,-1.5000006)" />
    <linearGradient
       id="linearGradient8589">
      <stop
         id="stop8591"
         style="stop-color:#fefefe;stop-opacity:1"
         offset="0" />
      <stop
         id="stop8593"
         style="stop-color:#cbcbcb;stop-opacity:1"
         offset="1" />
    </linearGradient>
    <linearGradient
       x1="32.892288"
       y1="8.0590115"
       x2="36.358372"
       y2="5.4565363"
       id="linearGradient2622"
       xlink:href="#linearGradient8589"
       gradientUnits="userSpaceOnUse"
       gradientTransform="matrix(0.4778466,0,0,0.5524833,-0.6277461,-7.61283e-2)" />
  </defs>
  <g
     id="layer1">
    <path
       d="M 2.4999608,0.499961 C 6.3955407,0.499961 10.104416,0.499961 13.999999,0.499961 C 14.683367,0.7372579 18.541324,3.628131 19.499999,5.5 C 19.499999,11.229157 19.500038,15.770842 19.500038,21.5 L 2.4999608,21.5 C 2.4999608,14.16664 2.4999608,7.8333189 2.4999608,0.499961 L 2.4999608,0.499961 z"
       id="path4160"
       style="fill:url(#radialGradient2632);fill-opacity:1;fill-rule:nonzero;stroke:url(#linearGradient2634);stroke-width:0.9999218;stroke-linecap:butt;stroke-linejoin:round;marker:none;marker-start:none;marker-mid:none;marker-end:none;stroke-miterlimit:4;stroke-dasharray:none;stroke-dashoffset:0;stroke-opacity:1;visibility:visible;display:inline;overflow:visible;enable-background:accumulate" />
    <path
       d="M 18.5,5.4681839 C 18.5,10.416074 18.5,15.552108 18.5,20.5 C 13.5,20.5 8.5000003,20.5 3.4999991,20.5 C 3.4999991,14.166663 3.4999991,7.8333324 3.4999991,1.4999999 C 6.9372605,1.4999999 10.456498,1.4999999 13.89376,1.4999999"
       id="path2435"
       style="opacity:0.4;fill:none;stroke:url(#linearGradient2629);stroke-width:0.99999988;stroke-linecap:butt;stroke-linejoin:miter;stroke-miterlimit:4;stroke-dasharray:none;stroke-dashoffset:0;stroke-opacity:1;display:inline" />
    <path
       d="M 8.60606,5.9999996 C 6.737092,8.6414768 4.868968,11.286306 3,13.927783 C 3,16.617373 3,19.310411 3,22 C 7.439405,22 11.878778,22 16.318181,22 C 17.546432,20.264067 17.735751,19.999449 19,18.212638 C 19,15.773558 19,13.343848 19,10.894684 C 15.33157,9.1664436 10.988266,7.1222835 8.60606,5.9999996 z"
       id="path3743"
       style="opacity:0.1;fill:url(#linearGradient2589);fill-opacity:1;fill-rule:nonzero;stroke:none;stroke-width:0.91176528;stroke-linecap:butt;stroke-linejoin:miter;marker:none;marker-start:none;marker-mid:none;marker-end:none;stroke-miterlimit:4;stroke-dasharray:none;stroke-dashoffset:0;stroke-opacity:1;visibility:visible;display:inline;overflow:visible;enable-background:accumulate" />
    <path
       d="M 8.60606,4.9999996 C 6.737092,7.6414762 4.868968,10.286306 3,12.927783 C 3,15.617372 3,18.31041 3,21 C 7.439405,21 11.878778,21 16.318181,21 C 17.546432,19.264068 17.735751,18.999448 19,17.212637 C 19,14.773559 19,12.343848 19,9.8946836 C 15.33157,8.166445 10.988266,6.1222835 8.60606,4.9999996 z"
       id="path3697"
       style="opacity:0.4;fill:url(#linearGradient2586);fill-opacity:1;fill-rule:nonzero;stroke:none;stroke-width:0.91176528;stroke-linecap:butt;stroke-linejoin:miter;marker:none;marker-start:none;marker-mid:none;marker-end:none;stroke-miterlimit:4;stroke-dasharray:none;stroke-dashoffset:0;stroke-opacity:1;visibility:visible;display:inline;overflow:visible;enable-background:accumulate" />
    <path
       d="M 9.025497,8.5408446 L 8.437262,9.3220946 L 11.554909,10.790845 L 12.143145,10.009594 L 9.025497,8.5408446 z M 7.849027,10.08772 L 7.260792,10.86897 L 10.378439,12.33772 L 10.966674,11.55647 L 7.849027,10.08772 z M 13.040203,10.43147 L 12.451968,11.21272 L 15.569615,12.68147 L 16.157851,11.90022 L 13.040203,10.43147 z M 6.672556,11.65022 L 6.069615,12.43147 L 9.187263,13.90022 L 9.790204,13.11897 L 6.672556,11.65022 z M 11.863733,11.978345 L 11.275497,12.759595 L 14.393145,14.228345 L 14.98138,13.447094 L 11.863733,11.978345 z M 17.054909,12.322095 L 16.451968,13.08772 L 18.760792,14.18147 C 18.760792,13.825089 18.760792,13.475495 18.760792,13.11897 L 17.054909,12.322095 z M 5.48138,13.21272 L 4.893145,13.978345 L 8.010791,15.447095 L 8.599027,14.68147 L 5.48138,13.21272 z M 10.687262,13.540845 L 10.084321,14.322095 L 13.201969,15.790845 L 13.80491,15.009594 L 10.687262,13.540845 z M 15.863733,13.86897 L 15.275498,14.65022 L 18.393145,16.11897 L 18.760792,15.634594 C 18.760792,15.498541 18.760792,15.364472 18.760792,15.228345 L 15.863733,13.86897 z M 4.30491,14.759595 L 3.716674,15.540845 L 6.834321,17.009595 L 7.422556,16.228345 L 4.30491,14.759595 z M 9.496086,15.103345 L 8.907851,15.86897 L 12.025497,17.33772 L 12.613732,16.572094 L 9.496086,15.103345 z M 14.687263,15.43147 L 14.099027,16.197095 L 17.216674,17.665845 L 17.80491,16.90022 L 14.687263,15.43147 z M 3.23138,16.384595 C 3.23138,16.733664 3.23138,17.082402 3.23138,17.43147 L 5.643145,18.572095 L 6.23138,17.790845 L 3.23138,16.384595 z M 8.319616,16.65022 L 7.73138,17.43147 L 10.849027,18.90022 L 11.437262,18.11897 L 8.319616,16.65022 z M 13.496086,16.978344 L 12.907851,17.759595 L 16.025498,19.228345 L 16.613733,18.447094 L 13.496086,16.978344 z M 7.128438,18.21272 L 6.540203,18.99397 L 9.657851,20.46272 L 10.246086,19.68147 L 7.128438,18.21272 z M 3.23138,18.478345 C 3.23138,18.832623 3.23138,19.186566 3.23138,19.540845 L 4.466674,20.11897 L 5.054909,19.33772 L 3.23138,18.478345 z M 12.319615,18.540844 L 11.73138,19.322095 L 14.849027,20.790845 L 15.437262,20.009594 L 12.319615,18.540844 z M 5.951968,19.759595 L 5.363733,20.540845 L 6.893144,21.259594 C 7.608833,21.259594 8.324515,21.259594 9.040204,21.259594 L 9.069615,21.228345 L 5.951968,19.759595 z M 11.143144,20.08772 L 10.540203,20.86897 L 11.363733,21.259594 C 12.118636,21.259594 12.873536,21.259594 13.628439,21.259594 L 11.143144,20.08772 z M 3.23138,20.58772 C 3.23138,20.811748 3.23138,21.035566 3.23138,21.259594 C 3.353929,21.259594 3.476478,21.259594 3.599027,21.259594 L 3.878439,20.90022 L 3.23138,20.58772 z"
       id="path6223"
       style="opacity:0.1;fill:url(#linearGradient2583);fill-opacity:1;fill-rule:evenodd;stroke:none;stroke-width:0.99999994px;stroke-linecap:butt;stroke-linejoin:miter;marker:none;marker-start:none;marker-mid:none;marker-end:none;stroke-miterlimit:4;stroke-dasharray:none;stroke-dashoffset:0;stroke-opacity:1;visibility:visible;display:inline;overflow:visible;enable-background:accumulate" />
    <path
       d="M 15.999999,17 C 15.080996,17 14.161992,17 13.242989,17 C 12.466769,15.613087 11.690549,14.226173 10.914329,12.839262 C 10.138108,14.226173 9.3618894,15.613087 8.5856694,17 C 7.7237794,17 6.8618894,17 5.9999994,17 C 7.1526474,15.108983 8.3052954,13.217967 9.4579434,11.32695 C 8.3857734,9.5512986 7.3136024,7.7756492 6.2414324,5.9999996 C 7.1292834,5.9999996 8.0171334,5.9999996 8.9049834,5.9999996 C 9.6163024,7.3191971 10.327621,8.6383947 11.038939,9.9575926 C 11.734683,8.6383947 12.430424,7.3191971 13.126167,5.9999996 C 13.993249,5.9999996 14.860332,5.9999996 15.727414,5.9999996 C 14.642263,7.8182847 13.557112,9.6365706 12.471961,11.454856 C 13.647974,13.303238 14.823986,15.151618 15.999999,17 z"
       id="path3522"
       style="font-size:31.35451508px;font-style:normal;font-variant:normal;font-weight:bold;font-stretch:normal;opacity:0.4;fill:#ffffff;fill-opacity:1;stroke:none;stroke-width:1px;stroke-linecap:butt;stroke-linejoin:miter;stroke-opacity:1;font-family:Droid Sans;-inkscape-font-specification:Droid Sans Bold" />
    <path
       d="M 3.761904,0.99999974 C 3.341062,0.99999974 3,1.6822432 3,2.5240731 L 3,13.671593 C 3.000965,13.765372 3.021524,13.854055 3.056685,13.916116 C 3.091847,13.978178 3.138396,14.007941 3.185033,13.998178 L 18.858503,9.0340487 C 18.939128,9.0086152 18.998873,8.8707152 19,8.7074612 L 19,5.7073195 C 19,5.7073195 13.901785,0.99999974 13.901785,0.99999974 L 3.761904,0.99999974 z"
       id="path3879"
       style="opacity:0.2;fill:url(#linearGradient2625);fill-opacity:1;fill-rule:evenodd;stroke:none;stroke-width:1.00213289;stroke-linecap:round;stroke-linejoin:round;stroke-miterlimit:4;stroke-dasharray:none;stroke-dashoffset:0;stroke-opacity:1" />
    <path
       d="M 15.999999,16 C 15.080996,16 14.161992,16 13.242989,16 C 12.466769,14.613087 11.690549,13.226173 10.914329,11.839262 C 10.138108,13.226173 9.3618894,14.613087 8.5856694,16 C 7.7237794,16 6.8618894,16 5.9999994,16 C 7.1526474,14.108983 8.3052954,12.217967 9.4579434,10.32695 C 8.3857734,8.5512988 7.3136024,6.7756492 6.2414324,4.9999996 C 7.1292834,4.9999996 8.0171334,4.9999996 8.9049834,4.9999996 C 9.6163024,6.3191971 10.327621,7.6383947 11.038939,8.9575929 C 11.734683,7.6383947 12.430424,6.3191971 13.126167,4.9999996 C 13.993249,4.9999996 14.860332,4.9999996 15.727414,4.9999996 C 14.642263,6.8182847 13.557112,8.6365709 12.471961,10.454856 C 13.647974,12.303238 14.823986,14.151618 15.999999,16 z"
       id="path2623"
       style="font-size:31.35451508px;font-style:normal;font-variant:normal;font-weight:bold;font-stretch:normal;fill:url(#linearGradient2579);fill-opacity:1;stroke:none;stroke-width:1px;stroke-linecap:butt;stroke-linejoin:miter;stroke-opacity:1;font-family:Droid Sans;-inkscape-font-specification:Droid Sans Bold" />
    <path
       d="M 13.075473,1 C 14.231776,1.3287671 13.414532,5.6143789 13.414532,5.6143789 C 13.414532,5.6143789 17.92992,5.1866427 19.022242,6.809375 C 20.511395,9.0216317 18.954022,6.1742029 18.848795,5.9876778 C 18.092867,4.6476323 14.982455,1.4405918 13.803386,1.0464703 C 13.715154,1.0169778 13.51951,1 13.075473,1 z"
       id="path3370"
       style="opacity:0.2;fill:#000000;fill-opacity:1;fill-rule:evenodd;stroke:none;display:inline" />
    <path
       d="M 12.999999,1 C 14.526165,1 13.999999,5 13.999999,5 C 13.999999,5 18.992073,4.54674 18.992073,7 C 18.992073,6.4022581 19.047823,5.5215662 18.928003,5.3440674 C 18.088896,4.1010616 15.184238,1.4821803 14.129934,1.0464703 C 14.043956,1.0109384 13.444036,1 12.999999,1 z"
       id="path4474"
       style="fill:url(#linearGradient2622);fill-opacity:1;fill-rule:evenodd;stroke:none;display:inline" />
  </g>
</svg>

<?xml version="1.0" encoding="UTF-8" standalone="no"?>
<!-- Created with Inkscape (http://www.inkscape.org/) -->
<svg id="svg3422" xmlns="http://www.w3.org/2000/svg" height="22" width="22" version="1.0" xmlns:xlink="http://www.w3.org/1999/xlink">
 <defs id="defs3424">
  <linearGradient id="linearGradient2634" y2="2.9062" gradientUnits="userSpaceOnUse" x2="-51.786" gradientTransform="matrix(.39221 0 0 .44736 28.199 -1.7387)" y1="53.624" x1="-51.786">
   <stop id="stop5651" style="stop-color:#425a2d" offset="0"/>
   <stop id="stop5653" style="stop-color:#7f956d" offset="1"/>
  </linearGradient>
  <radialGradient id="radialGradient2632" gradientUnits="userSpaceOnUse" cy="11.49" cx="14.239" gradientTransform="matrix(0 1.5891 -2.5736 0 35.379 -19.998)" r="18">
   <stop id="stop5641" style="stop-color:#b5cc85" offset="0"/>
   <stop id="stop5643" style="stop-color:#9abe74" offset=".26238"/>
   <stop id="stop5645" style="stop-color:#669f4d" offset=".70495"/>
   <stop id="stop5647" style="stop-color:#47892b" offset="1"/>
  </radialGradient>
  <linearGradient id="linearGradient2629" y2="46.017" gradientUnits="userSpaceOnUse" x2="24" gradientTransform="matrix(.45454 0 0 .44186 .090934 .39537)" y1="2" x1="24">
   <stop id="stop3213" style="stop-color:#fff" offset="0"/>
   <stop id="stop3215" style="stop-color:#fff;stop-opacity:0" offset="1"/>
  </linearGradient>
  <linearGradient id="linearGradient2589" y2="12" spreadMethod="reflect" gradientUnits="userSpaceOnUse" x2="91" gradientTransform="matrix(.55867 0 0 .47440 -30.222 1.3696)" y1="28" x1="75.854">
   <stop id="stop4002" offset="0"/>
   <stop id="stop4004" style="stop-opacity:0" offset="1"/>
  </linearGradient>
  <linearGradient id="linearGradient2586" y2="12" spreadMethod="reflect" gradientUnits="userSpaceOnUse" x2="91" gradientTransform="matrix(.55867 0 0 .47440 -30.161 .31228)" y1="28" x1="75.854">
   <stop id="stop5295" style="stop-color:#fff" offset="0"/>
   <stop id="stop5297" style="stop-color:#fff;stop-opacity:0" offset="1"/>
  </linearGradient>
  <linearGradient id="linearGradient2583" y2="20.127" spreadMethod="reflect" gradientUnits="userSpaceOnUse" x2="-25.366" gradientTransform="matrix(.47059 0 0 .5 32.437 -2.506)" y1="34.497" x1="-43.305">
   <stop id="stop3761" offset="0"/>
   <stop id="stop3763" style="stop-opacity:0" offset="1"/>
  </linearGradient>
  <linearGradient id="linearGradient2625" y2="24.628" gradientUnits="userSpaceOnUse" x2="20.055" gradientTransform="matrix(.34830 0 0 .69672 2.6408 -3.1585)" y1="15.298" x1="16.626">
   <stop id="stop2687" style="stop-color:#fff" offset="0"/>
   <stop id="stop2689" style="stop-color:#fff;stop-opacity:0" offset="1"/>
  </linearGradient>
  <linearGradient id="linearGradient2579" y2=".19081" gradientUnits="userSpaceOnUse" x2="24.239" gradientTransform="matrix(.52272 0 0 .50498 .72074 -1.5)" y1="44.11" x1="24.239">
   <stop id="stop2601" style="stop-color:#355129" offset="0"/>
   <stop id="stop2603" style="stop-color:#7c8763" offset="1"/>
  </linearGradient>
  <linearGradient id="linearGradient2622" y2="5.4565" gradientUnits="userSpaceOnUse" x2="36.358" gradientTransform="matrix(.47785 0 0 .55248 -.62775 -.076128)" y1="8.059" x1="32.892">
   <stop id="stop8591" style="stop-color:#fefefe" offset="0"/>
   <stop id="stop8593" style="stop-color:#cbcbcb" offset="1"/>
  </linearGradient>
 </defs>
 <g id="layer1">
  <path id="path4160" style="stroke-linejoin:round;stroke-width:.99992;stroke:url(#linearGradient2634);fill:url(#radialGradient2632)" d="m2.5 0.49996h11.5c0.683 0.2373 4.541 3.1281 5.5 5v16h-17v-21-0.00004z"/>
  <path id="path2435" style="opacity:.4;stroke:url(#linearGradient2629);fill:none" d="m18.5 5.4682v15.032h-15v-19h10.394"/>
  <path id="path3743" style="opacity:.1;fill:url(#linearGradient2589)" d="m8.6061 6c-1.869 2.6415-3.7371 5.286-5.6061 7.928v8.072h13.318c1.228-1.736 1.418-2.001 2.682-3.787v-7.318c-3.668-1.7286-8.012-3.7727-10.394-4.895z"/>
  <path id="path3697" style="opacity:.4;fill:url(#linearGradient2586)" d="m8.6061 5c-1.869 2.6415-3.7371 5.286-5.6061 7.928v8.072h13.318c1.228-1.736 1.418-2.001 2.682-3.787v-7.3183c-3.668-1.7283-8.012-3.7724-10.394-4.8947z"/>
  <path id="path6223" style="opacity:.1;fill-rule:evenodd;fill:url(#linearGradient2583)" d="m9.0255 8.5408l-0.5882 0.7813 3.1177 1.4689 0.588-0.781-3.1175-1.4692zm-1.1765 1.5472l-0.5882 0.781 3.1172 1.469 0.589-0.782-3.118-1.468zm5.191 0.343l-0.588 0.782 3.118 1.468 0.588-0.781-3.118-1.469zm-6.3674 1.219l-0.603 0.781 3.1177 1.469 0.6029-0.781-3.1176-1.469zm5.1914 0.328l-0.589 0.782 3.118 1.468 0.588-0.781-3.117-1.469zm5.191 0.344l-0.603 0.766 2.309 1.093v-1.062l-1.706-0.797zm-11.574 0.891l-0.5883 0.765 3.1177 1.469 0.5882-0.766-3.1176-1.468zm5.2056 0.328l-0.603 0.781 3.118 1.469 0.603-0.781-3.118-1.469zm5.177 0.328l-0.589 0.781 3.118 1.469 0.368-0.484v-0.407l-2.897-1.359zm-11.559 0.891l-0.5882 0.781 3.1176 1.469 0.5883-0.782-3.1177-1.468zm5.1912 0.343l-0.5882 0.766 3.1171 1.469 0.589-0.766-3.1179-1.469zm5.1909 0.328l-0.588 0.766 3.118 1.469 0.588-0.766-3.118-1.469zm-11.456 0.954v1.046l2.4117 1.141 0.5883-0.781-3-1.406zm5.0882 0.265l-0.5882 0.781 3.1176 1.469 0.588-0.781-3.1174-1.469zm5.1764 0.328l-0.588 0.782 3.117 1.468 0.589-0.781-3.118-1.469zm-6.3676 1.235l-0.5882 0.781 3.1177 1.469 0.5881-0.782-3.1176-1.468zm-3.897 0.265v1.063l1.2353 0.578 0.5882-0.781-1.8235-0.86zm9.0886 0.063l-0.589 0.781 3.118 1.469 0.588-0.781-3.117-1.469zm-6.368 1.219l-0.5883 0.781 1.5294 0.719h2.1471l0.0294-0.032-3.1176-1.468zm5.191 0.328l-0.603 0.781 0.824 0.391h2.264l-2.485-1.172zm-7.9116 0.5v0.672h0.3676l0.2794-0.36-0.647-0.312z"/>
  <path id="path3522" style="opacity:.4;fill:#fff" d="m16 17h-2.757c-0.776-1.387-1.552-2.774-2.329-4.161-0.776 1.387-1.5521 2.774-2.3283 4.161h-2.5857c1.1526-1.891 2.3053-3.782 3.4579-5.673-1.0721-1.7757-2.1443-3.5514-3.2165-5.327h2.6636c0.7113 1.3192 1.423 2.6384 2.134 3.9576 0.696-1.3192 1.391-2.6384 2.087-3.9576h2.601c-1.085 1.8183-2.17 3.6366-3.255 5.455 1.176 1.848 2.352 3.697 3.528 5.545z"/>
  <path id="path3879" style="opacity:.2;fill:url(#linearGradient2625);fill-rule:evenodd" d="m3.7619 1c-0.4208 0-0.7619 0.6822-0.7619 1.5241v11.148c0.001 0.093 0.0215 0.182 0.0567 0.244 0.0351 0.062 0.0817 0.092 0.1283 0.082l15.674-4.964c0.08-0.0254 0.14-0.1633 0.141-0.3265v-3.0002l-5.098-4.7073h-10.14z"/>
  <path id="path2623" style="fill:url(#linearGradient2579)" d="m16 16h-2.757c-0.776-1.387-1.552-2.774-2.329-4.161-0.776 1.387-1.5521 2.774-2.3283 4.161h-2.5857c1.1526-1.891 2.3053-3.782 3.4579-5.673-1.0721-1.7757-2.1443-3.5514-3.2165-5.327h2.6636c0.7113 1.3192 1.423 2.6384 2.134 3.9576 0.696-1.3192 1.391-2.6384 2.087-3.9576h2.601c-1.085 1.8183-2.17 3.6366-3.255 5.455 1.176 1.848 2.352 3.697 3.528 5.545z"/>
  <path id="path3370" style="opacity:.2;fill-rule:evenodd" d="m13.075 1c1.157 0.3288 0.34 4.6144 0.34 4.6144s4.515-0.4278 5.607 1.195c1.489 2.2122-0.068-0.6352-0.173-0.8217-0.756-1.3401-3.867-4.5471-5.046-4.9412-0.088-0.0295-0.283-0.0465-0.728-0.0465z"/>
  <path id="path4474" style="fill:url(#linearGradient2622);fill-rule:evenodd" d="m13 1c1.526 0 1 4 1 4s4.992-0.4533 4.992 2c0-0.5977 0.056-1.4784-0.064-1.6559-0.839-1.243-3.744-3.8619-4.798-4.2976-0.086-0.0356-0.686-0.0465-1.13-0.0465z"/>
 </g>
</svg>
